!!!SOCIAL_FUNCTION:	songs of the turkey dance
!!!PDT:	1922
!!!OTL: No_32_Turkey_Dance_Song_(c).krn
!!!REG: Southwest
!!!LANG: Non-Tone
!!!LING_GROUP: Uto-Aztecan
**kern	**kern
*staff2	*staff1
*clefF4	*clefF4
*k[f#c#g#d#a#]	*k[f#c#g#d#a#]
*M2/4	*M2/4
4r	8d#\L
.	8f#\J
=1	=1
8GG#/L	4f#\
8GG#/J	.
8GG#/L	(8.f#\L
8GG#/J	.
.	16d#\Jk)
=2	=2
8GG#/L	4d#\
8GG#/J	.
8GG#/L	8d#\L
8GG#/J	8f#\J
=3	=3
2r	4d#\
.	(8.d#\L
.	16B\Jk)
=4	=4
2r	4B\
.	8B\L
.	8d#\J
=5	=5
2r	4B\
.	(8.B\L
.	16F#\Jk)
=6	=6
2r	4F#\
.	8D#\L
.	8F#\J
=7	=7
2r	4F#\
.	8.F#\L
.	16D#\Jk
=8||	=8||
*M3/4	*M3/4
2.r	4D#\
.	8.F#\L
.	16D#\Jk
.	8.D#/L
.	16C#/Jk
=9||	=9||
*M2/4	*M2/4
2r	2D#\
=10	=10
2r	[2D#\
=11	=11
2r	4D#\]
.	4r
==	==
*-	*-
